X: 7088
T: Christine Deagal's Flight
R: hornpipe
M: 4/4
K: Gmajor
|:E|DE (3DEF GEDB|cEGc BcdB|cdef gdBd|(3cBA (3GFE D2 (3CB,A,|
B,DGD ECA2|FGAF GAB<d|c3e dBBB|(3ABc (3DEF G2G:|
|:B|cdef gdgb|abag f2fg|aAaA gAgA|fage d2dB|
cdec dBBB|(3ABc (3DEF GDB,D|ECA,A GDB,B (3ABc (3DEF G2G:|

